X:150
T:Otonabee Reel
R:reel
C:Bruce Osborne  --  Aug. 1993
Z:abc by bosborne@kos.net
M:2/4
L:1/8
K:Bb
D/E/|FF/G/ F/D/B,/C/|D/F/B/A/ BA/B/|cc/d/ c/A/F/A/|g/f/=e/g/ fD/E/|\
FF/G/ F/D/B,/C/|D/F/B/A/ BA/B/|cc/d/ c/A/F/A/|B/d/c/A/ B:|\
K:F
|:A/B/|c/d/c/A/ F/G/A/c/|f/g/f/e/ fe/f/|g/a/g/e/ c/e/g/e/|f/e/f/d/ cA/B/|\
c/d/c/A/ F/G/A/c/|f/g/f/e/ fe/f/|g/a/g/e/ c/e/g/e/|f/e/f/g/ f:|
